X: 7
T: My Darling Asleep
R: jig
M: 6/8
L: 1/8
K: Dmaj
e|fdd cAA|BGG A2G|FAA def|gfg eag|
fdd cAA|BGG A2G|FAA def|gec d2:|
A|FAA BAG|FAA BAG|FAA def|gfg eag|
fdd cAA|BGG A2G|FAA def|gec d2:|


Tune 76	Setting 12564

